svg/material-icons/energy_savings_leaf/materialiconsoutlined/20px.svg

<svg xmlns="http://www.w3.org/2000/svg" width="20" height="20" viewBox="0 0 20 20"><path d="M10 3c-3.73 0-7 3-7 7 0 1.66.58 3.19 1.55 4.39L3 15.94 4.06 17l1.55-1.55C6.81 16.42 8.34 17 10 17c1.79 0 3.58-.68 4.95-2.05A6.973 6.973 0 0 0 17 10V3h-7zm5.5 7c0 1.47-.57 2.85-1.61 3.89A5.46 5.46 0 0 1 10 15.5 5.51 5.51 0 0 1 4.5 10c0-1.5.58-2.89 1.65-3.92A5.475 5.475 0 0 1 10 4.5h5.5V10z"/><path d="m7.49 10.6 2.93.18-2.02 2.58c-.12.16-.11.38.03.52.15.15.4.15.55.01l3.86-3.59c.33-.31.13-.87-.32-.9l-2.94-.18 2.02-2.58c.12-.16.11-.38-.03-.52a.402.402 0 0 0-.55-.01L7.16 9.7c-.33.31-.13.87.33.9z"/></svg>

<svg xmlns="http://www.w3.org/2000/svg" enable-background="new 0 0 20 20" height="20" viewBox="0 0 20 20" width="20"><g><rect fill="none" height="20" width="20" x="0"/></g><g><g><path d="M10,3C10,3,10,3,10,3c-3.73,0-7,3-7,7c0,1.66,0.58,3.19,1.55,4.39L3,15.94L4.06,17l1.55-1.55C6.81,16.42,8.34,17,10,17 c1.79,0,3.58-0.68,4.95-2.05C16.32,13.58,17,11.79,17,10l0-7L10,3z M15.5,10c0,1.47-0.57,2.85-1.61,3.89 c-1.04,1.04-2.42,1.61-3.89,1.61c-3.03,0-5.5-2.47-5.5-5.5c0-1.5,0.58-2.89,1.65-3.92C7.19,5.06,8.56,4.5,10,4.5l5.5,0L15.5,10z"/><path d="M7.49,10.6l2.93,0.18L8.4,13.36c-0.12,0.16-0.11,0.38,0.03,0.52c0.15,0.15,0.4,0.15,0.55,0.01l3.86-3.59 c0.33-0.31,0.13-0.87-0.32-0.9L9.58,9.22l2.02-2.58c0.12-0.16,0.11-0.38-0.03-0.52c-0.15-0.15-0.4-0.15-0.55-0.01L7.16,9.7 C6.83,10.01,7.03,10.57,7.49,10.6z"/></g></g></svg>
